X: 27380
T: Mo Mhàiri Mhin Mheall' Shuileach
R: strathspey
M: 4/4
K: Adorian
|:B,|"Am"A,<B,E>F "Em"{EF}E>DE<G|"G"G,/G,/G, D>G, B,>A,G,>B,|"Am"A,<B,E>F "Em"{EF}E>DE<G|"Am"A>E"Em"G<B, "Am"{A,B,}A,2 A,:|
|:B|"Am"A<aa>b {ab}a>gg<a|"G"b>aa<b "Em"g>ee<g|"G"d>eg>a ""b>ga<b|"Am"{ab}a>e"Em"g<B "Am"{AB}[A2A2] A:|

